X:14
T:The Flogging Reel
R:reel
O:Ireland
M:C
L:1/8
K:Dmix
dc |: "G" BG ~G2 BGdG | BG     ~G2      Bdgd | BG   ~G2   BdcB | "D" AGFG ABcA :|
      "G" ~g2 gd BGBd | "G" {a}gfge "D" fgaf | "G" ~g2 gd BcdB | "D" AGFG ABcA |
      "G" ~g2 gd BGBd | "G" ~g2 ge  "D" fgaf | "G" bgaf   gedB | "D" AGFG ABcA |]
      "G" Bdgd   Bdgd | Bdgd            BGGB | "F" Ac=fc Ac=fc | Ac=fc    AFFc |
      "G" Bdgd   Bdgd | Bdef     g2       ga | (3bag  af  gedB | "D" AGFG ABcA |]
